app/img/company/ic_meet.svg

<svg width="86" height="88" viewBox="0 0 86 88" fill="none" xmlns="http://www.w3.org/2000/svg">
    <path d="M39.8902 2.14437L8.72523 12.9458C4.69955 14.341 2 18.1338 2 22.3944V65.3209C2 69.5545 4.66599 73.3294 8.65588 74.7452L39.8203 85.8036C42.0005 86.5772 44.3814 86.571 46.5575 85.7861L77.1074 74.7666C81.0719 73.3365 83.7143 69.5744 83.7143 65.3598V22.356C83.7143 18.1141 81.0381 14.3338 77.0372 12.9242L46.488 2.16121C44.354 1.40936 42.028 1.40343 39.8902 2.14437Z"
          fill="url(#paint0_linear)" stroke="url(#paint1_linear)" stroke-width="3" stroke-linecap="round"/>
    <path d="M63.1629 39.9563C62.9265 39.6744 62.6762 39.4066 62.419 39.153L54.5135 31.1411C53.8096 30.4276 52.8958 29.9654 51.91 29.8243C50.9242 29.6832 49.9199 29.8709 49.0485 30.359L43.069 24.292C42.1364 23.3535 40.8755 22.8268 39.5613 22.8268C38.247 22.8268 36.9861 23.3535 36.0535 24.292C35.4435 24.9051 35.0045 25.6709 34.7811 26.5116C33.8032 25.6767 32.5449 25.257 31.2689 25.3402C29.9929 25.4235 28.7979 26.0031 27.9337 26.9581C27.0694 27.9131 26.6027 29.1696 26.631 30.4652C26.6593 31.7607 27.1804 32.9951 28.0855 33.9104L28.3706 34.1993C27.5386 34.4382 26.7827 34.8933 26.1776 35.5193C25.5726 36.1454 25.1394 36.9208 24.9209 37.7687C24.7024 38.6166 24.7063 39.5076 24.9321 40.3535C25.1579 41.1995 25.5977 41.971 26.2082 42.5916L27.0704 43.4654C26.2507 43.6925 25.5048 44.1349 24.908 44.7479C23.9824 45.6918 23.4629 46.9685 23.4629 48.2993C23.4629 49.63 23.9824 50.9068 24.908 51.8507L37.4232 64.5343C40.7602 67.9338 45.2905 69.8544 50.0219 69.8756H50.1193C52.4319 69.8834 54.7232 69.4266 56.8606 68.5316C58.998 67.6366 60.9392 66.3211 62.5719 64.6612C65.7637 61.398 67.603 57.0212 67.7129 52.4278C67.8227 47.8344 66.1949 43.3724 63.1629 39.9563V39.9563ZM60.7503 62.8221C59.3453 64.2562 57.6706 65.3899 55.8254 66.1561C53.9802 66.9223 52.002 67.3053 50.008 67.2825C47.9961 67.2776 46.0049 66.8705 44.1485 66.0846C42.292 65.2986 40.6068 64.1493 39.1893 62.7023L26.674 50.0186C26.45 49.7913 26.273 49.5208 26.1536 49.2231C26.0342 48.9254 25.9748 48.6065 25.9787 48.2852C25.975 47.9628 26.0345 47.643 26.1539 47.3442C26.2733 47.0454 26.4501 46.7736 26.674 46.5447C27.1382 46.1028 27.7511 45.8568 28.3879 45.8568C29.0248 45.8568 29.6377 46.1028 30.1018 46.5447L38.8556 55.4021C39.0966 55.621 39.4112 55.7379 39.7346 55.7289C40.0581 55.7199 40.3659 55.5857 40.5948 55.3538C40.8236 55.1219 40.956 54.8099 40.9649 54.4821C40.9738 54.1543 40.8584 53.8354 40.6425 53.5912L31.9235 44.7479L28.002 40.7736C27.5482 40.3126 27.2933 39.688 27.2933 39.0367C27.2933 38.3854 27.5482 37.7608 28.002 37.2997C28.4646 36.8546 29.0781 36.6065 29.7159 36.6065C30.3538 36.6065 30.9673 36.8546 31.4298 37.2997L42.1721 48.1865C42.41 48.4267 42.7322 48.5612 43.068 48.5606C43.4038 48.5599 43.7255 48.4241 43.9625 48.183C44.1994 47.9419 44.3322 47.6153 44.3315 47.275C44.3309 46.9348 44.1969 46.6087 43.959 46.3685L29.8724 32.0924C29.4219 31.6296 29.1693 31.0056 29.1693 30.3554C29.1693 29.7053 29.4219 29.0813 29.8724 28.6185C30.3369 28.1745 30.9513 27.9272 31.5898 27.9272C32.2283 27.9272 32.8426 28.1745 33.3071 28.6185L36.0883 31.4371L39.2866 34.6784L45.5443 41.0203C45.7821 41.2614 46.1048 41.3968 46.4412 41.3968C46.7776 41.3968 47.1002 41.2614 47.3381 41.0203C47.576 40.7792 47.7096 40.4522 47.7096 40.1113C47.7096 39.7703 47.576 39.4434 47.3381 39.2023L41.0805 32.8605L37.8474 29.5839C37.3935 29.1228 37.1386 28.4982 37.1386 27.8469C37.1386 27.1956 37.3935 26.571 37.8474 26.1099C38.3099 25.6648 38.9234 25.4167 39.5613 25.4167C40.1991 25.4167 40.8126 25.6648 41.2752 26.1099L47.2547 32.177C46.7742 33.0603 46.5897 34.0779 46.7289 35.0767C46.868 36.0755 47.3234 37.0015 48.0264 37.7155L51.3082 41.0414C50.3068 42.3389 49.7756 43.9457 49.8034 45.5927C49.8313 47.2397 50.4165 48.8271 51.4612 50.0891C51.4854 50.1207 51.5134 50.1491 51.5446 50.1736C51.7654 50.4034 52.0639 50.5398 52.3799 50.5555C52.696 50.5712 53.0062 50.465 53.2481 50.2582C53.3763 50.1502 53.4821 50.0176 53.5596 49.8679C53.637 49.7183 53.6846 49.5547 53.6994 49.3864C53.7143 49.2181 53.6962 49.0485 53.6462 48.8874C53.5962 48.7262 53.5152 48.5766 53.408 48.4473C52.6703 47.5559 52.2907 46.4158 52.3448 45.2537C52.3989 44.0917 52.8827 42.9928 53.7 42.1759C53.7428 42.1276 53.7893 42.0829 53.8391 42.042C53.9837 41.9308 54.1032 41.7895 54.1895 41.6277C54.2758 41.4658 54.3269 41.2871 54.3395 41.1035C54.352 40.92 54.3256 40.7358 54.2621 40.5635C54.1985 40.3911 54.0994 40.2345 53.9712 40.1042L49.7994 35.8763C49.5212 35.469 49.3931 34.9755 49.4373 34.4821C49.4815 33.9887 49.6953 33.5267 50.0414 33.1768C50.3875 32.8268 50.8439 32.6112 51.3309 32.5676C51.8178 32.524 52.3044 32.655 52.7058 32.938L60.5904 40.9639C60.8059 41.1823 61.0075 41.4008 61.2161 41.6686C63.8141 44.5901 65.2128 48.4071 65.1262 52.339C65.0396 56.271 63.4743 60.0209 60.7503 62.8221V62.8221Z"
          fill="#80FF9F"/>
    <path d="M62.0645 51.2025C62.0664 51.9524 61.9218 52.6953 61.639 53.3883C61.3562 54.0813 60.9407 54.7107 60.4166 55.2401C60.1768 55.4778 59.8552 55.6117 59.5197 55.6136C59.2688 55.6144 59.0233 55.5397 58.8144 55.3988C58.6055 55.258 58.4427 55.0574 58.3466 54.8225C58.2504 54.5876 58.2254 54.3291 58.2746 54.0797C58.3237 53.8304 58.4449 53.6015 58.6228 53.4221C59.2011 52.8321 59.5256 52.0341 59.5256 51.2025C59.5256 50.3708 59.2011 49.5729 58.6228 48.9828C58.3849 48.7418 58.2513 48.4148 58.2513 48.0738C58.2513 47.7329 58.3849 47.4059 58.6228 47.1648C58.8607 46.9238 59.1833 46.7883 59.5197 46.7883C59.8561 46.7883 60.1788 46.9238 60.4166 47.1648C60.9407 47.6943 61.3562 48.3236 61.639 49.0166C61.9218 49.7096 62.0664 50.4525 62.0645 51.2025V51.2025Z"
          fill="#80FF9F"/>
    <path d="M56.8979 30.3871C56.7317 30.3871 56.5672 30.354 56.4137 30.2895C56.2601 30.2251 56.1206 30.1306 56.0031 30.0115C55.8856 29.8924 55.7924 29.751 55.7288 29.5954C55.6652 29.4398 55.6325 29.2731 55.6325 29.1047C55.6307 28.2736 55.3041 27.4771 54.7242 26.8894C54.1444 26.3018 53.3585 25.9708 52.5384 25.969C52.2019 25.969 51.8792 25.8335 51.6412 25.5923C51.4032 25.3511 51.2695 25.024 51.2695 24.683C51.2695 24.3419 51.4032 24.0148 51.6412 23.7736C51.8792 23.5325 52.2019 23.397 52.5384 23.397C54.0315 23.3988 55.463 24.0008 56.5187 25.0708C57.5745 26.1408 58.1685 27.5915 58.1703 29.1047C58.1703 29.2737 58.1373 29.441 58.0733 29.5971C58.0093 29.7531 57.9155 29.8948 57.7972 30.014C57.679 30.1332 57.5387 30.2275 57.3843 30.2915C57.23 30.3556 57.0647 30.3881 56.8979 30.3871V30.3871Z"
          fill="#80FF9F"/>
    <path d="M61.2371 30.1193C60.9015 30.1193 60.5796 29.9842 60.3423 29.7437C60.105 29.5032 59.9717 29.177 59.9717 28.8369C59.9698 26.9094 59.213 25.0616 57.8676 23.6994C56.5221 22.3371 54.6981 21.572 52.7963 21.572C52.4597 21.572 52.137 21.4365 51.899 21.1953C51.661 20.9541 51.5273 20.627 51.5273 20.286C51.5273 19.9449 51.661 19.6178 51.899 19.3767C52.137 19.1355 52.4597 19 52.7963 19C55.3779 19 57.8538 20.0394 59.6793 21.8894C61.5048 23.7395 62.5303 26.2487 62.5303 28.865C62.5267 29.0335 62.4904 29.1995 62.4234 29.3537C62.3565 29.5079 62.2602 29.6472 62.1401 29.7637C62.02 29.8802 61.8785 29.9715 61.7235 30.0326C61.5686 30.0936 61.4033 30.1231 61.2371 30.1193V30.1193Z"
          fill="#80FF9F"/>
    <path d="M25.9991 61.7018C24.506 61.6999 23.0745 61.098 22.0188 60.028C20.963 58.958 20.369 57.5073 20.3672 55.9941C20.3672 55.6531 20.5009 55.326 20.7388 55.0848C20.9768 54.8436 21.2996 54.7081 21.6361 54.7081C21.9726 54.7081 22.2954 54.8436 22.5333 55.0848C22.7713 55.326 22.905 55.6531 22.905 55.9941C22.9068 56.8252 23.2334 57.6217 23.8133 58.2093C24.3931 58.797 25.179 59.1279 25.9991 59.1298C26.3356 59.1298 26.6583 59.2653 26.8963 59.5065C27.1343 59.7476 27.268 60.0747 27.268 60.4158C27.268 60.7569 27.1343 61.084 26.8963 61.3251C26.6583 61.5663 26.3356 61.7018 25.9991 61.7018V61.7018Z"
          fill="#80FF9F"/>
    <path d="M25.7341 66.0987C23.1524 66.0987 20.6765 65.0594 18.851 63.2093C17.0256 61.3593 16 58.8501 16 56.2337C16 55.8927 16.1337 55.5656 16.3717 55.3244C16.6096 55.0832 16.9324 54.9478 17.2689 54.9478C17.6054 54.9478 17.9282 55.0832 18.1662 55.3244C18.4041 55.5656 18.5378 55.8927 18.5378 56.2337C18.5351 57.1922 18.7193 58.1419 19.08 59.0279C19.4407 59.914 19.9706 60.7191 20.6394 61.3969C21.3082 62.0747 22.1026 62.6118 22.9769 62.9773C23.8513 63.3428 24.7883 63.5295 25.7341 63.5268C26.0706 63.5268 26.3934 63.6622 26.6313 63.9034C26.8693 64.1446 27.003 64.4717 27.003 64.8127C27.003 65.1538 26.8693 65.4809 26.6313 65.722C26.3934 65.9632 26.0706 66.0987 25.7341 66.0987Z"
          fill="#80FF9F"/>
    <defs>
        <linearGradient id="paint0_linear" x1="9.70258" y1="-3.41897" x2="43.7346" y2="86.6685"
                        gradientUnits="userSpaceOnUse">
            <stop stop-color="#0A1193"/>
            <stop offset="1" stop-color="#5E2CE6"/>
        </linearGradient>
        <linearGradient id="paint1_linear" x1="27.1429" y1="24.2917" x2="48.0002" y2="103.563"
                        gradientUnits="userSpaceOnUse">
            <stop stop-color="#62DAE0"/>
            <stop offset="1" stop-color="#76F3B6"/>
        </linearGradient>
    </defs>
</svg>

<svg width="86" height="88" fill="none" xmlns="http://www.w3.org/2000/svg"><path d="M39.89 2.144 8.725 12.946A10 10 0 0 0 2 22.394v42.927a10 10 0 0 0 6.656 9.424L39.82 85.804a10 10 0 0 0 6.737-.018l30.55-11.02a10 10 0 0 0 6.607-9.406V22.356a10 10 0 0 0-6.677-9.432L46.488 2.161a10 10 0 0 0-6.598-.017Z" fill="url(#a)" stroke="url(#b)" stroke-width="3" stroke-linecap="round"/><path d="M63.163 39.956c-.236-.282-.487-.55-.744-.803l-7.905-8.012a4.567 4.567 0 0 0-2.604-1.317 4.537 4.537 0 0 0-2.861.535l-5.98-6.067a4.945 4.945 0 0 0-3.508-1.465 4.945 4.945 0 0 0-3.508 1.465 4.948 4.948 0 0 0-1.272 2.22 4.915 4.915 0 0 0-3.512-1.172 4.932 4.932 0 0 0-3.335 1.618 5.063 5.063 0 0 0-1.303 3.507 5.057 5.057 0 0 0 1.454 3.445l.286.29a4.952 4.952 0 0 0-2.193 1.32 5.05 5.05 0 0 0-1.257 2.249 5.096 5.096 0 0 0 .011 2.584 5.046 5.046 0 0 0 1.276 2.239l.862.873c-.82.227-1.565.67-2.162 1.283a5.073 5.073 0 0 0-1.445 3.551c0 1.331.52 2.608 1.445 3.552l12.515 12.683a17.765 17.765 0 0 0 12.599 5.342h.097a17.3 17.3 0 0 0 6.742-1.344 17.487 17.487 0 0 0 5.71-3.87 18.116 18.116 0 0 0 5.142-12.234 18.14 18.14 0 0 0-4.55-12.472ZM60.75 62.822a14.89 14.89 0 0 1-4.925 3.334 14.727 14.727 0 0 1-5.817 1.126 15.122 15.122 0 0 1-5.86-1.197 15.287 15.287 0 0 1-4.959-3.383L26.674 50.02a2.413 2.413 0 0 1-.695-1.734 2.46 2.46 0 0 1 .695-1.74 2.485 2.485 0 0 1 1.714-.688c.637 0 1.25.246 1.714.688l8.754 8.857a1.255 1.255 0 0 0 1.739-.048 1.291 1.291 0 0 0 .047-1.763l-8.719-8.843-3.921-3.974a2.476 2.476 0 0 1-.709-1.737c0-.652.255-1.276.709-1.737a2.472 2.472 0 0 1 1.714-.694c.638 0 1.251.249 1.714.694l10.742 10.887a1.258 1.258 0 0 0 1.79-.004 1.292 1.292 0 0 0-.003-1.815L29.872 32.093a2.49 2.49 0 0 1-.703-1.737c0-.65.253-1.274.703-1.736a2.485 2.485 0 0 1 1.718-.692c.638 0 1.253.247 1.717.692l2.781 2.818 3.199 3.241 6.257 6.342a1.26 1.26 0 0 0 1.794 0 1.294 1.294 0 0 0 0-1.818l-6.258-6.341-3.233-3.277a2.476 2.476 0 0 1-.708-1.737c0-.651.255-1.276.708-1.737a2.471 2.471 0 0 1 1.714-.693c.638 0 1.252.248 1.714.693l5.98 6.067a4.71 4.71 0 0 0 .771 5.538l3.282 3.326a7.251 7.251 0 0 0-1.505 4.552 7.245 7.245 0 0 0 1.658 4.496c.024.032.052.06.084.085a1.244 1.244 0 0 0 1.703.084 1.279 1.279 0 0 0 .451-.872 1.298 1.298 0 0 0-.291-.939 4.67 4.67 0 0 1-1.063-3.193 4.658 4.658 0 0 1 1.355-3.078c.043-.048.09-.093.14-.134a1.286 1.286 0 0 0 .5-.939 1.306 1.306 0 0 0-.369-.999L49.8 35.876a2.135 2.135 0 0 1 .242-2.7 2.065 2.065 0 0 1 2.664-.239l7.885 8.027a7.8 7.8 0 0 1 .626.705 15.546 15.546 0 0 1 3.91 10.67 15.528 15.528 0 0 1-4.376 10.483Z" fill="#80FF9F"/><path d="M62.065 51.203a5.748 5.748 0 0 1-.426 2.185 5.684 5.684 0 0 1-1.222 1.852c-.24.238-.562.372-.897.374-.251 0-.497-.074-.706-.215a1.278 1.278 0 0 1-.467-.577 1.298 1.298 0 0 1 .276-1.4c.578-.59.903-1.388.903-2.22 0-.831-.325-1.63-.903-2.22a1.294 1.294 0 0 1 0-1.817 1.26 1.26 0 0 1 1.794 0c.524.53.94 1.159 1.222 1.852.283.693.427 1.435.425 2.185ZM56.898 30.387a1.25 1.25 0 0 1-.895-.375 1.284 1.284 0 0 1-.37-.907 3.164 3.164 0 0 0-.909-2.216 3.08 3.08 0 0 0-2.186-.92 1.26 1.26 0 0 1-.897-.377 1.295 1.295 0 0 1 0-1.818 1.26 1.26 0 0 1 .897-.377 5.6 5.6 0 0 1 3.98 1.674 5.754 5.754 0 0 1 1.652 4.034 1.298 1.298 0 0 1-.373.909 1.262 1.262 0 0 1-.9.373Z" fill="#80FF9F"/><path d="M61.237 30.12c-.336 0-.657-.136-.895-.376a1.291 1.291 0 0 1-.37-.907 7.322 7.322 0 0 0-2.104-5.138 7.127 7.127 0 0 0-5.072-2.127 1.26 1.26 0 0 1-.897-.377 1.295 1.295 0 0 1 0-1.818 1.26 1.26 0 0 1 .897-.377 9.67 9.67 0 0 1 6.883 2.89 9.933 9.933 0 0 1 2.851 6.975 1.296 1.296 0 0 1-.39.899 1.264 1.264 0 0 1-.903.355ZM26 61.702a5.601 5.601 0 0 1-3.981-1.674 5.754 5.754 0 0 1-1.652-4.034c0-.34.134-.668.372-.91a1.26 1.26 0 0 1 1.794 0c.238.242.372.57.372.91.002.831.328 1.628.908 2.215a3.08 3.08 0 0 0 2.186.92c.337 0 .66.136.897.378a1.294 1.294 0 0 1 0 1.818 1.26 1.26 0 0 1-.897.377Z" fill="#80FF9F"/><path d="M25.734 66.099a9.669 9.669 0 0 1-6.883-2.89A9.933 9.933 0 0 1 16 56.234c0-.341.134-.668.372-.91a1.26 1.26 0 0 1 1.794 0c.238.242.372.569.372.91a7.357 7.357 0 0 0 .542 2.794 7.28 7.28 0 0 0 1.56 2.369 7.17 7.17 0 0 0 2.337 1.58 7.095 7.095 0 0 0 2.757.55c.337 0 .66.135.897.376a1.295 1.295 0 0 1 0 1.819 1.26 1.26 0 0 1-.897.377Z" fill="#80FF9F"/><defs><linearGradient id="a" x1="9.703" y1="-3.419" x2="43.735" y2="86.668" gradientUnits="userSpaceOnUse"><stop stop-color="#0A1193"/><stop offset="1" stop-color="#5E2CE6"/></linearGradient><linearGradient id="b" x1="27.143" y1="24.292" x2="48" y2="103.563" gradientUnits="userSpaceOnUse"><stop stop-color="#62DAE0"/><stop offset="1" stop-color="#76F3B6"/></linearGradient></defs></svg>
